!!!COM: Anon.
!!!OTL: O que tens, o/ Juliana
!!!OTL: Romanceiro Folclorico do Brasil
!!!CNT: Brasil
!!!OCY: Brasil
!!!ODT: <1971///
!!!PSR: Irmaos Vitale
!!!PSP: Sao Paulo, Brasil
!!!PDT: 1949///
!!!PPE: Rossini Tavares de Lima
!!!PPG: pages 7-8
!! Romance: Juliana E D. Jorge
!! Place: Glicerio, Sao Paulo, Brasil
**kern
*clefG2
*k[b-e-a-]
*M2/4
*MM116
=1-
12g
12g
12g
12g
12g
12g
=
8.g
16e-
4c
=
12c
12e-
12g
12cc
12cc
12cc
=
4cc
4a-
=
12a-
12g
12a-
12cc
12cc
12cc
=
4cc
12g
12g
12a-
=
8.g
16f
12f
12e-
12d
=
2e-
==
*-
